web/themes/custom/subsites/bellcom_theme/assets/images/edit.svg

<svg width="50" height="50" viewBox="0 0 80 80" fill="none" xmlns="http://www.w3.org/2000/svg">
<path d="M36.6667 6.66663H30C13.3333 6.66663 6.66666 13.3333 6.66666 30V50C6.66666 66.6666 13.3333 73.3333 30 73.3333H50C66.6667 73.3333 73.3333 66.6666 73.3333 50V43.3333" stroke="black" stroke-width="1.5" stroke-linecap="round" stroke-linejoin="round"/>
<path d="M53.4667 10.0667L27.2 36.3333C26.2 37.3333 25.2 39.3 25 40.7333L23.5667 50.7667C23.0333 54.4 25.6 56.9333 29.2333 56.4333L39.2667 55C40.6667 54.8 42.6333 53.8 43.6667 52.8L69.9333 26.5333C74.4667 22 76.6 16.7333 69.9333 10.0667C63.2667 3.39999 58 5.53332 53.4667 10.0667Z" stroke="black" stroke-width="1.5" stroke-miterlimit="10" stroke-linecap="round" stroke-linejoin="round"/>
<path d="M49.7 13.8334C50.8053 17.7583 52.8999 21.3336 55.7832 24.2169C58.6664 27.1001 62.2418 29.1947 66.1667 30.3" stroke="black" stroke-width="1.5" stroke-miterlimit="10" stroke-linecap="round" stroke-linejoin="round"/>
</svg>

<svg width="50" height="50" viewBox="0 0 80 80" fill="none" xmlns="http://www.w3.org/2000/svg"><path d="M36.667 6.667H30C13.333 6.667 6.667 13.333 6.667 30v20c0 16.667 6.666 23.333 23.333 23.333h20c16.667 0 23.333-6.666 23.333-23.333v-6.667" stroke="#000" stroke-width="1.5" stroke-linecap="round" stroke-linejoin="round"/><path d="M53.467 10.067L27.2 36.333c-1 1-2 2.967-2.2 4.4l-1.433 10.034c-.534 3.633 2.033 6.166 5.666 5.666L39.267 55c1.4-.2 3.366-1.2 4.4-2.2l26.266-26.267c4.534-4.533 6.667-9.8 0-16.466-6.666-6.667-11.933-4.534-16.466 0zM49.7 13.833A23.813 23.813 0 0066.167 30.3" stroke="#000" stroke-width="1.5" stroke-miterlimit="10" stroke-linecap="round" stroke-linejoin="round"/></svg>
